X:44
T:The Developement
T:Matthis 4th Birthday
C:François Champs
H:27.08.2011
M:4/4
L:1/8
R:Reel
K:C
|: "G" G,B,DG FEDE | "C" CEGc _BAGA | "F" FAdc BdcB | "C" cGFG ECB,A,
|1 "G" G,B,DG FEDE | "C" CEGc _BAGA | "F" FAdc BGed | "C" cGGG G^F=FE
:|2"G" G,B,DG FEDE | "C" CEGc _BAGA | "F" FAdc BGed | "C" cG^FG EGcd
| "C" ecGc EGCD | EGc_B A_BGA | "F" FAde fdcd | "G" BG^FG EGcd
| "C" ecGc EGCD | EGc_B A_BGA | "F" FAdc BdcB | "C" cG^FG EGcd
| "C" ecGc EGCD | EGc_B A_BGA | "F" FAde fdcd | "Em" BG^FG EGcd
| "Am" ecGc EGCD | EGc_B "G"A_BGA | "F" FAdc BGed | "C" cGGG G^F=FE

